!!!OTL: Die Stiefmutter.
!!!ARE: Europa, Mitteleuropa, Deutschland
!!!SCT: A0096
!!!TXL: @@NDS
!!!YEM: Copyright 1995, estate of Helmut Schaffrath.
**kern	**text
*M3/4	*
*k[b-]	*
*F:	*
!LO:TX:a:t=F dur	!
{8c	1._'Kind,
8c	wo
=1	=1
4f	biſt
4f	du
8g	hin-
8b-/	-ge-
=2	=2
4a	-we-
4f}	-ſen?
{4a	Kind,
=3	=3
4.g	ſa-
8f	-ge
8eL	du's
8gJ	.
=4	=4
4f	mir!'
4r}	.
{4c	"Nach
=5	=5
4f	mei-
4f	-ner
8g	Mut-
8b-/	-ter
=6	=6
4a	Schwe-
4f}	-ſter,
{4a	wie
=7	=7
4.g	we-
8f	-he
4e	iſt
=8	=8
2f}	mir!"
==	==
!!!GTL: Balladen und Romanzen (erzählende Volkslieder)
!!!AGN: Romanze, Ballade, Lied
!! Aus Erk, Liederhalle, No. 2.
!!!ONB: ESAC (Essen Associative Code) Database: ALTDEU
!!!AMT: simple triple
!!!AIN: vox
!!!EED: Helmut Schaffrath
!!!EEV: 1.0
!!!URL-scan: https://rosdok.uni-rostock.de/mcrviewer/recordIdentifier/rosdok_ppn738218359/iview2/phys_0264.iview2?x=-425.8853427895981&y=1255.1673759041587&scale=0.4823261117445838&rotation=0&layout=singlePageLayout
!!!ENC: Anna Maria Matuszewska
!!!EEV: 2024/22/02
*-	*-
